email-variant.svg

<svg fill="currentColor" viewBox="0 0 24 24"><path d="M12 13 2 6.76V6c0-1.11.89-2 2-2h16a2 2 0 0 1 2 2v.75zm10 5a2 2 0 0 1-2 2H4a2 2 0 0 1-2-2V9.11l2 1.25V18h16v-7.64l2-1.25z"/></svg>

<svg  viewBox="0 0 24 24" fill="currentColor"><path  d="M12,13L2,6.76V6C2,4.89 2.89,4 4,4H20A2,2 0 0,1 22,6V6.75L12,13M22,18A2,2 0 0,1 20,20H4C2.89,20 2,19.1 2,18V9.11L4,10.36V18H20V10.36L22,9.11V18Z"/></svg>
